svg/business/shopping_cart_1_fill.svg

<?xml version="1.0" encoding="UTF-8"?>
<svg width="24px" height="24px" viewBox="0 0 24 24" version="1.1" xmlns="http://www.w3.org/2000/svg" xmlns:xlink="http://www.w3.org/1999/xlink">
    <title>shopping_cart_1_fill</title>
    <g id="页面-1" stroke="none" stroke-width="1" fill="none" fill-rule="evenodd">
        <g id="Business" transform="translate(-1008.000000, -48.000000)" fill-rule="nonzero">
            <g id="shopping_cart_1_fill" transform="translate(1008.000000, 48.000000)">
                <path d="M24,0 L24,24 L0,24 L0,0 L24,0 Z M12.5934901,23.257841 L12.5819402,23.2595131 L12.5108777,23.2950439 L12.4918791,23.2987469 L12.4918791,23.2987469 L12.4767152,23.2950439 L12.4056548,23.2595131 C12.3958229,23.2563662 12.3870493,23.2590235 12.3821421,23.2649074 L12.3780323,23.275831 L12.360941,23.7031097 L12.3658947,23.7234994 L12.3769048,23.7357139 L12.4804777,23.8096931 L12.4953491,23.8136134 L12.4953491,23.8136134 L12.5071152,23.8096931 L12.6106902,23.7357139 L12.6232938,23.7196733 L12.6232938,23.7196733 L12.6266527,23.7031097 L12.609561,23.275831 C12.6075724,23.2657013 12.6010112,23.2592993 12.5934901,23.257841 L12.5934901,23.257841 Z M12.8583906,23.1452862 L12.8445485,23.1473072 L12.6598443,23.2396597 L12.6498822,23.2499052 L12.6498822,23.2499052 L12.6471943,23.2611114 L12.6650943,23.6906389 L12.6699349,23.7034178 L12.6699349,23.7034178 L12.678386,23.7104931 L12.8793402,23.8032389 C12.8914285,23.8068999 12.9022333,23.8029875 12.9078286,23.7952264 L12.9118235,23.7811639 L12.8776777,23.1665331 C12.8752882,23.1545897 12.8674102,23.1470016 12.8583906,23.1452862 L12.8583906,23.1452862 Z M12.1430473,23.1473072 C12.1332178,23.1423925 12.1221763,23.1452606 12.1156365,23.1525954 L12.1099173,23.1665331 L12.0757714,23.7811639 C12.0751323,23.7926639 12.0828099,23.8018602 12.0926481,23.8045676 L12.108256,23.8032389 L12.3092106,23.7104931 L12.3186497,23.7024347 L12.3186497,23.7024347 L12.3225043,23.6906389 L12.340401,23.2611114 L12.337245,23.2485176 L12.337245,23.2485176 L12.3277531,23.2396597 L12.1430473,23.1473072 Z" id="MingCute" fill-rule="nonzero"></path>
                <path d="M7.5,19 C8.32843,19 9,19.6716 9,20.5 C9,21.3284 8.32843,22 7.5,22 C6.67157,22 6,21.3284 6,20.5 C6,19.6716 6.67157,19 7.5,19 Z M17.5,19 C18.3284,19 19,19.6716 19,20.5 C19,21.3284 18.3284,22 17.5,22 C16.6716,22 16,21.3284 16,20.5 C16,19.6716 16.6716,19 17.5,19 Z M3,2 C4.72559,2 6.02275,3.28286 6.1454,5 L19.8018,5 C21.0496,5 21.9927,6.13009 21.7695,7.35777 L20.1332,16.3578 C19.9603,17.3088 19.132,18 18.1654,18 L6.93112,18 C5.88184,18 5.01096,17.1891 4.9362,16.1425 L4.13522,4.92875 C4.09111,4.31124 3.56456,4 3,4 C2.44772,4 2,3.55228 2,3 C2,2.44772 2.44772,2 3,2 Z" id="形状" fill="#09244B"></path>
            </g>
        </g>
    </g>
</svg>

<svg xmlns="http://www.w3.org/2000/svg" width="24" height="24"><g fill="none" fill-rule="nonzero"><path d="M24 0v24H0V0zM12.593 23.258l-.011.002-.071.035-.02.004-.014-.004-.071-.035c-.01-.004-.019-.001-.024.005l-.004.01-.017.428.005.02.01.013.104.074.015.004.012-.004.104-.074.012-.016.004-.017-.017-.427c-.002-.01-.009-.017-.017-.018m.265-.113-.013.002-.185.093-.01.01-.003.011.018.43.005.012.008.007.201.093c.012.004.023 0 .029-.008l.004-.014-.034-.614c-.003-.012-.01-.02-.02-.022m-.715.002a.023.023 0 0 0-.027.006l-.006.014-.034.614c0 .012.007.02.017.024l.015-.002.201-.093.01-.008.004-.011.017-.43-.003-.012-.01-.01z"/><path fill="#09244B" d="M7.5 19a1.5 1.5 0 1 1 0 3 1.5 1.5 0 0 1 0-3m10 0a1.5 1.5 0 1 1 0 3 1.5 1.5 0 0 1 0-3M3 2c1.726 0 3.023 1.283 3.145 3h13.657a2 2 0 0 1 1.968 2.358l-1.637 9A2 2 0 0 1 18.165 18H6.931a2 2 0 0 1-1.995-1.858l-.8-11.213C4.09 4.31 3.564 4 3 4a1 1 0 0 1 0-2"/></g></svg>
